dist/img/nogi.svg

<svg width="110" height="115" viewBox="0 0 110 115" fill="none" xmlns="http://www.w3.org/2000/svg">
<path d="M51.2305 97.6566C77.8631 97.6566 98.7798 76.5804 97.9492 50.5815C97.1186 24.5826 74.8553 3.50635 48.2226 3.50635C21.59 3.50635 0.67332 24.5826 1.5039 50.5815C2.33449 76.5804 24.5978 97.6566 51.2305 97.6566Z" fill="#FFF4F4"/>
<path d="M33.3851 95.4313L33.3334 94.9414L24.5352 7.12501L76.7186 6.77002L76.3345 11.3067L75.2338 11.2215L75.5219 7.84207L25.754 8.18286L34.3897 94.3592L68.1716 94.1249L69.915 73.6352L71.0157 73.7274L69.191 95.1828L33.3851 95.4313Z" fill="#333333"/>
<path d="M38.7365 109.515L35.8555 94.8756L66.7046 94.6626L64.0526 109.338L57.0125 109.387L56.9165 108.969C56.7548 108.257 56.4257 107.59 55.9545 107.019C55.4833 106.448 54.8825 105.988 54.198 105.674C53.321 105.248 52.3508 105.028 51.3679 105.034C50.385 105.041 49.4178 105.272 48.5467 105.71C47.8636 106.031 47.2666 106.5 46.8016 107.078C46.3367 107.657 46.0163 108.33 45.8652 109.047L45.7691 109.466L38.7365 109.515ZM37.1926 95.9334L39.6525 108.443H44.8901C45.1224 107.66 45.5215 106.932 46.0619 106.305C46.6024 105.678 47.2724 105.166 48.0297 104.801C49.0548 104.287 50.1924 104.016 51.3485 104.008C52.5046 104.001 53.646 104.258 54.6782 104.758C55.4385 105.112 56.1137 105.614 56.6606 106.233C57.2076 106.851 57.6143 107.573 57.8547 108.351L63.0996 108.315L65.3675 95.7773L37.1926 95.9334Z" fill="#333333"/>
<path d="M39.7241 114.541L38.5273 108.45L44.8878 108.407C45.1201 107.624 45.5192 106.896 46.0596 106.269C46.6001 105.642 47.2701 105.13 48.0274 104.765C49.0525 104.252 50.1902 103.98 51.3463 103.972C52.5024 103.965 53.6437 104.222 54.6759 104.723C55.4362 105.076 56.1114 105.578 56.6584 106.197C57.2053 106.815 57.612 107.537 57.8524 108.315L64.2202 108.272L63.1195 114.378L39.7241 114.541ZM39.8644 109.508L40.6401 113.469L62.2109 113.32L62.9496 109.352L57.0398 109.387L56.9437 108.968C56.782 108.256 56.453 107.589 55.9818 107.018C55.5106 106.447 54.9098 105.987 54.2252 105.674C53.3483 105.247 52.3781 105.028 51.3951 105.034C50.4122 105.04 49.4451 105.272 48.574 105.709C47.8909 106.031 47.2938 106.499 46.8289 107.078C46.3639 107.656 46.0435 108.33 45.8924 109.046L45.7964 109.465L39.8644 109.508Z" fill="#333333"/>
<path d="M24.7737 8.18991L21.6562 0.465452L79.5058 0.0678711L76.5066 7.83493L24.7737 8.18991ZM23.2962 1.51621L25.5567 7.11786L75.79 6.77707L77.9618 1.13993L23.2962 1.51621Z" fill="#333333"/>
<path d="M56.9355 29.9099L27.4688 30.1323L27.4775 31.1973L56.9442 30.9748L56.9355 29.9099Z" fill="#333333"/>
<path d="M67.981 70.1272L31.4297 70.354L31.4368 71.4189L67.9881 71.1921L67.981 70.1272Z" fill="#333333"/>
<path d="M59.7149 66.654L59.6484 66.0151C59.738 61.2504 61.1227 56.591 63.6653 52.4997C66.2078 48.4084 69.8197 45.0274 74.1422 42.6925C78.5155 40.4135 83.4354 39.3202 88.178 38.2623C89.5594 37.957 90.9334 37.6517 92.3001 37.318C97.1978 36.1111 104.186 33.9315 108.301 28.9191L110 26.8389L109.261 29.3877C107.045 37.1405 104.681 44.6378 100.478 51.2051C95.6391 58.7521 88.9315 63.8426 81.5886 65.5323C77.6659 66.4269 73.5956 66.3488 69.6582 66.2423C66.5225 66.1025 63.3803 66.2046 60.2616 66.5475L59.7149 66.654ZM107.577 31.2833C103.218 35.3514 97.0501 37.247 92.5808 38.383C91.2068 38.7167 89.8253 39.0291 88.4365 39.3344C83.753 40.378 78.907 41.4643 74.6667 43.6652C70.6064 45.86 67.1971 49.0159 64.7625 52.833C62.328 56.6502 60.949 61.0021 60.7565 65.4755C63.7269 65.1993 66.7135 65.121 69.6951 65.2412C73.566 65.3193 77.5625 65.3974 81.3448 64.5312C88.3996 62.9054 94.8708 57.9853 99.547 50.6797C103.292 44.8082 105.553 38.1771 107.577 31.2833Z" fill="#333333"/>
<path d="M57.8163 61.4287L57.6538 60.9246C55.253 53.5551 54.5512 46.4412 55.5706 39.7816C56.7378 32.2133 60.2319 25.3976 65.4252 20.6124C71.0764 15.3444 78.8035 12.5613 86.1094 13.1506L87.9784 13.3068L86.3237 14.1516C83.3688 15.671 82.63 19.4125 82.4749 20.9603C82.3567 22.0607 82.3272 23.2038 82.2976 24.3113C82.3181 26.0715 82.1547 27.8292 81.8101 29.558C80.9236 33.3635 78.4046 36.885 73.8909 40.6478C72.7459 41.6063 71.5344 42.5363 70.3672 43.438C67.907 45.2239 65.611 47.2097 63.5045 49.3734C60.2541 52.9232 58.6732 57.0198 59.1608 60.598L59.2273 61.0382L57.8163 61.4287ZM84.1518 14.1019C77.4277 14.2178 71.0057 16.807 66.2082 21.3366C61.1923 26.0011 57.8089 32.6038 56.6861 39.9378C55.8193 46.0864 56.2769 52.3405 58.0305 58.3119C58.4706 54.691 60.1039 51.3002 62.6919 48.635C64.8373 46.4241 67.1752 44.3933 69.6802 42.5647C70.84 41.6702 72.0368 40.7472 73.1744 39.8029C77.5033 36.1963 79.9042 32.8594 80.7389 29.2883C81.0615 27.6239 81.2148 25.9333 81.1969 24.2404C81.1969 23.1115 81.256 21.9471 81.3816 20.8041C81.7067 17.9145 82.8 15.5574 84.4547 14.0948L84.1518 14.1019Z" fill="#333333"/>
<path d="M63.5186 63.6792L63.2305 62.6497C77.7584 58.8428 90.872 51.1692 101.061 40.5127L101.873 41.2227C91.5434 52.0297 78.2485 59.8138 63.5186 63.6792Z" fill="#333333"/>
<path d="M58.9258 50.3742L57.8398 50.1541C60.336 39.1131 66.1728 29.0278 74.6162 21.166L75.355 21.9328C67.0821 29.6502 61.3664 39.5449 58.9258 50.3742Z" fill="#333333"/>
<path d="M65.5078 32.8733L65.9067 24.1763L67.0148 24.226L66.6898 31.2972L74.5646 28.3864L74.9635 29.3803L65.5078 32.8733Z" fill="#333333"/>
<path d="M60.7567 42.1033L60.1953 32.3554L61.3034 32.2915L61.7688 40.3L69.2595 36.0828L69.8209 37.0057L60.7567 42.1033Z" fill="#333333"/>
<path d="M86.2266 53.4203L89.7651 42.5151L90.8288 42.8346L87.7779 52.2134L97.4109 51.3756L97.5143 52.4335L86.2266 53.4203Z" fill="#333333"/>
<path d="M85.1258 61.7197L71.9766 60.5766L77.3692 47.8682L78.3961 48.2728L73.5648 59.6466L85.2292 60.6618L85.1258 61.7197Z" fill="#333333"/>
<path d="M28.6757 90.6672C22.1134 86.9588 16.5531 81.8158 12.446 75.6555C8.3389 69.4953 5.80063 62.4913 5.03715 55.2117C4.27368 47.9322 5.3065 40.5822 8.05182 33.7582C10.7971 26.9341 15.1776 20.8281 20.8379 15.9355L21.5766 16.7236C16.0478 21.5076 11.7703 27.4768 9.09107 34.1469C6.41183 40.8169 5.40633 48.0001 6.15613 55.1135C6.90592 62.227 9.3899 69.0704 13.4066 75.0886C17.4232 81.1068 22.8594 86.1302 29.2741 89.7514L28.6757 90.6672Z" fill="#333333"/>
<path d="M72.0378 93.9384L71.6094 92.9586C79.4526 89.7674 86.2552 84.6025 91.3007 78.0078C96.3463 71.4131 99.448 63.6328 100.279 55.4863L101.387 55.5928C100.534 63.929 97.3574 71.8897 92.1923 78.6368C87.0272 85.3838 80.0647 90.6675 72.0378 93.9313V93.9384Z" fill="#333333"/>
<path d="M96.7489 33.3348C94.2137 27.5252 90.4388 22.2912 85.668 17.9709L86.4067 17.1899C91.2991 21.6116 95.1743 26.9684 97.7831 32.9159L96.7489 33.3348Z" fill="#333333"/>
<path d="M12.1799 65.0634L11.2048 64.5522C11.9863 62.9047 12.3628 61.1064 12.3051 59.2967C12.2475 57.4869 11.7573 55.7141 10.8724 54.1156L10.4883 53.4056L11.3156 53.3346C13.1921 53.1741 15.005 52.6008 16.6139 51.659C18.2228 50.7171 19.5847 49.4321 20.594 47.9033L21.5691 48.4074C20.7854 50.0556 20.4076 51.8553 20.4653 53.6666C20.523 55.4779 21.0144 57.2521 21.9015 58.8511L22.2857 59.5611L21.4583 59.6321C19.5814 59.791 17.7679 60.3637 16.1587 61.3057C14.5496 62.2477 13.188 63.5335 12.1799 65.0634ZM12.1799 54.3073C13.368 56.7553 13.7098 59.5044 13.1551 62.1525C15.1683 60.2627 17.756 59.0391 20.5423 58.6594C19.3561 56.2085 19.012 53.4584 19.5598 50.8071C17.5595 52.6956 14.9846 53.9218 12.2095 54.3073H12.1799Z" fill="#333333"/>
<path d="M74.7493 104.808L73.7742 104.297C74.4304 102.918 74.7471 101.412 74.6997 99.8964C74.6523 98.3807 74.2421 96.8959 73.5009 95.5572L73.1094 94.8472L73.9367 94.7762C75.5117 94.6488 77.0345 94.1722 78.3855 93.3838C79.7364 92.5954 80.8788 91.5167 81.7229 90.2324L82.698 90.7436C82.0419 92.1226 81.7252 93.6285 81.7726 95.1442C81.82 96.6599 82.2302 98.1447 82.9713 99.4834L83.3629 100.193L82.5355 100.264C80.9613 100.394 79.4396 100.872 78.089 101.66C76.7385 102.448 75.5955 103.526 74.7493 104.808ZM74.8232 95.7489C75.7644 97.7269 76.0557 99.9336 75.658 102.075C77.3144 100.592 79.3967 99.622 81.6343 99.2917C80.6935 97.3136 80.4023 95.107 80.7995 92.9658C79.1431 94.4488 77.0608 95.4186 74.8232 95.7489Z" fill="#333333"/>
<path d="M18.2518 46.974C17.8389 46.9706 17.4338 46.865 17.0758 46.6673C16.7178 46.4696 16.4188 46.1864 16.2079 45.8452C15.997 45.504 15.8812 45.1163 15.8717 44.7196C15.8623 44.3228 15.9594 43.9304 16.1538 43.5803C16.3038 43.3144 16.5069 43.0797 16.7516 42.8897C16.9963 42.6996 17.2777 42.5579 17.5796 42.4727C17.8798 42.384 18.1955 42.3547 18.5078 42.3864C18.8202 42.4181 19.1225 42.5103 19.3968 42.6573C19.9538 42.9486 20.3678 43.4404 20.5479 44.0248C20.7279 44.6091 20.6593 45.2383 20.3571 45.7741C20.2087 46.0397 20.0069 46.2744 19.7634 46.4645C19.52 46.6546 19.2397 46.7964 18.9388 46.8817C18.7156 46.9441 18.4842 46.9752 18.2518 46.974ZM18.2518 43.4241C18.0266 43.4256 17.8058 43.4843 17.6118 43.5942C17.4178 43.7041 17.2574 43.8614 17.147 44.05C17.0366 44.2386 16.9799 44.4519 16.9829 44.6684C16.9858 44.8848 17.0482 45.0966 17.1638 45.2824C17.2793 45.4682 17.4439 45.6214 17.6408 45.7264C17.8377 45.8314 18.06 45.8845 18.2852 45.8804C18.5104 45.8762 18.7304 45.8149 18.923 45.7028C19.1156 45.5906 19.274 45.4315 19.382 45.2416C19.5424 44.9542 19.5781 44.6175 19.4812 44.305C19.3843 43.9924 19.1628 43.7294 18.8649 43.5732C18.6775 43.482 18.4691 43.438 18.2592 43.4454L18.2518 43.4241Z" fill="#333333"/>
<path d="M12.3552 49.9625C12.0723 49.9624 11.7935 49.8966 11.5426 49.7708C11.317 49.6869 11.1126 49.5576 10.9432 49.3916C10.7738 49.2256 10.6432 49.0268 10.5602 48.8084C10.4772 48.59 10.4436 48.357 10.4619 48.1252C10.4801 47.8933 10.5496 47.6679 10.6658 47.4639C10.782 47.26 10.9421 47.0822 11.1356 46.9426C11.329 46.8029 11.5513 46.7046 11.7874 46.6541C12.0236 46.6037 12.2683 46.6023 12.5051 46.65C12.7418 46.6978 12.9653 46.7936 13.1604 46.931C13.3575 47.031 13.5316 47.1679 13.6724 47.3338C13.8133 47.4997 13.918 47.691 13.9804 47.8966C14.1075 48.3114 14.0598 48.7577 13.8474 49.139C13.741 49.3278 13.5968 49.4947 13.4231 49.6299C13.2494 49.7651 13.0497 49.8661 12.8354 49.927C12.6778 49.96 12.5162 49.972 12.3552 49.9625ZM12.3552 47.7688C12.2658 47.7706 12.1779 47.7917 12.0981 47.8305C12.0183 47.8693 11.9485 47.9248 11.8939 47.9929C11.8394 48.061 11.8014 48.14 11.7828 48.2241C11.7642 48.3081 11.7654 48.3952 11.7864 48.4787C11.8191 48.5866 11.8844 48.6828 11.9741 48.755C12.0637 48.8273 12.1736 48.8723 12.2898 48.8845C12.4061 48.8966 12.5235 48.8754 12.6272 48.8234C12.7309 48.7713 12.8162 48.6909 12.8723 48.5923C12.9455 48.4591 12.9615 48.3036 12.9166 48.1593C12.8957 48.0883 12.86 48.0222 12.8118 47.9648C12.7635 47.9075 12.7037 47.8601 12.6359 47.8256C12.5492 47.7833 12.4524 47.7637 12.3552 47.7688Z" fill="#333333"/>
<path d="M12.8147 44.7301C12.533 44.7308 12.2559 44.6624 12.0095 44.5313C11.8129 44.4294 11.6391 44.2912 11.4982 44.1246C11.3572 43.9581 11.2518 43.7665 11.188 43.5607C11.1242 43.355 11.1032 43.1392 11.1263 42.9256C11.1493 42.7121 11.216 42.505 11.3224 42.3163C11.4276 42.1264 11.5713 41.9588 11.7452 41.8235C11.9191 41.6881 12.1195 41.5877 12.3345 41.5282C12.6567 41.4358 13.0002 41.4373 13.3215 41.5325C13.6428 41.6278 13.9275 41.8126 14.1395 42.0635C14.3515 42.3143 14.4812 42.62 14.5123 42.9418C14.5435 43.2635 14.4745 43.587 14.3143 43.8711C14.1679 44.1307 13.9514 44.3476 13.6874 44.4988C13.4235 44.65 13.1219 44.7299 12.8147 44.7301ZM12.8147 42.5221C12.7585 42.5126 12.7009 42.5126 12.6447 42.5221C12.5709 42.5423 12.5021 42.5766 12.4425 42.6229C12.3828 42.6693 12.3335 42.7268 12.2975 42.7919C12.2412 42.8906 12.2167 43.0031 12.227 43.1152C12.2374 43.2273 12.2821 43.334 12.3556 43.4216C12.4291 43.5092 12.5281 43.5738 12.6399 43.6073C12.7517 43.6408 12.8713 43.6416 12.9836 43.6096C13.0959 43.5777 13.1957 43.5144 13.2705 43.4277C13.3453 43.3411 13.3916 43.2351 13.4036 43.1232C13.4156 43.0112 13.3926 42.8984 13.3378 42.7989C13.2829 42.6995 13.1985 42.618 13.0954 42.5647C13.0068 42.5288 12.9104 42.5142 12.8147 42.5221Z" fill="#333333"/>
<path d="M76.2192 114.499C75.4261 114.494 74.6644 114.2 74.0873 113.677C73.5102 113.154 73.1605 112.441 73.1083 111.68C73.0562 110.919 73.3056 110.168 73.8064 109.577C74.3072 108.986 75.0222 108.598 75.8078 108.493C76.5934 108.388 77.3914 108.572 78.0412 109.01C78.6911 109.447 79.1447 110.104 79.311 110.849C79.4772 111.595 79.3438 112.373 78.9374 113.028C78.5311 113.682 77.8819 114.165 77.1205 114.378C76.8278 114.461 76.5242 114.501 76.2192 114.499ZM76.2192 109.529C76.0214 109.53 75.8247 109.558 75.6357 109.614C75.1145 109.763 74.6762 110.105 74.4171 110.564C74.158 111.023 74.0995 111.563 74.2542 112.064C74.409 112.565 74.7645 112.986 75.2424 113.235C75.7204 113.484 76.2817 113.54 76.8028 113.391C77.3242 113.242 77.7626 112.9 78.0217 112.44C78.1903 112.14 78.275 111.803 78.2675 111.461C78.2601 111.12 78.1607 110.787 77.9791 110.494C77.7976 110.2 77.5399 109.957 77.2315 109.788C76.9231 109.619 76.5743 109.53 76.2192 109.529Z" fill="#333333"/>
<path d="M81.3014 107.811C80.8586 107.812 80.4306 107.658 80.0959 107.38C79.7613 107.101 79.5424 106.716 79.4796 106.294C79.4167 105.873 79.514 105.444 79.7537 105.087C79.9934 104.729 80.3593 104.466 80.7843 104.347C81.2512 104.218 81.752 104.269 82.1805 104.489C82.6092 104.712 82.9281 105.09 83.0669 105.539C83.2069 105.989 83.1564 106.474 82.9266 106.888C82.6922 107.299 82.2997 107.605 81.8333 107.74C81.6604 107.788 81.4813 107.812 81.3014 107.811ZM81.3014 105.341C81.2329 105.33 81.163 105.33 81.0945 105.341C80.9082 105.395 80.7516 105.517 80.6587 105.681C80.5682 105.845 80.5477 106.036 80.6015 106.213C80.6554 106.391 80.7792 106.542 80.9468 106.633C81.1188 106.722 81.3206 106.743 81.5082 106.69C81.6945 106.636 81.8512 106.513 81.9441 106.349C82.0353 106.185 82.0566 105.994 82.0032 105.816C81.947 105.637 81.8196 105.487 81.6486 105.397C81.5416 105.353 81.4251 105.333 81.3088 105.341H81.3014Z" fill="#333333"/>
<path d="M70.8533 109.969C70.4529 109.969 70.0595 109.869 69.7116 109.678C69.3636 109.488 69.0731 109.214 68.8683 108.884C68.6635 108.553 68.5516 108.177 68.5434 107.792C68.5353 107.408 68.6312 107.028 68.8218 106.689C68.9673 106.433 69.1639 106.207 69.4005 106.023C69.637 105.84 69.9088 105.703 70.2003 105.621C70.4919 105.538 70.7974 105.512 71.0996 105.543C71.4017 105.574 71.6946 105.662 71.9613 105.802C72.2281 105.942 72.4636 106.131 72.6544 106.358C72.8452 106.585 72.9875 106.846 73.0733 107.127C73.159 107.407 73.1865 107.701 73.1542 107.991C73.1218 108.281 73.0303 108.563 72.8848 108.819C72.7415 109.077 72.5462 109.304 72.3102 109.488C72.0743 109.672 71.8025 109.809 71.5107 109.891C71.2969 109.949 71.0753 109.975 70.8533 109.969ZM70.8533 106.59C70.738 106.589 70.6232 106.606 70.5134 106.64C70.3577 106.679 70.2119 106.748 70.085 106.844C69.958 106.939 69.8524 107.058 69.7747 107.193C69.6813 107.361 69.6322 107.548 69.6317 107.738C69.6313 107.928 69.6795 108.115 69.7721 108.283C69.8648 108.45 69.999 108.594 70.1629 108.7C70.3268 108.806 70.5154 108.872 70.712 108.891C70.9087 108.911 71.1073 108.884 71.2903 108.812C71.4734 108.74 71.6353 108.626 71.7617 108.48C71.8881 108.334 71.9751 108.16 72.0151 107.974C72.055 107.788 72.0467 107.596 71.9909 107.413C71.9507 107.263 71.8787 107.123 71.7796 107.001C71.6805 106.879 71.5563 106.777 71.4147 106.703C71.2396 106.623 71.0471 106.584 70.8533 106.59Z" fill="#333333"/>
<path d="M32.4992 34.1504L31.3945 34.2344L33.899 64.6824L35.0037 64.5985L32.4992 34.1504Z" fill="#333333"/>
</svg>

<svg xmlns="http://www.w3.org/2000/svg" fill="none" viewBox="0 0 110 115"><path fill="#FFF4F4" d="M51.23 97.657c26.633 0 47.55-21.077 46.72-47.075-.831-26-23.095-47.076-49.727-47.076-26.633 0-47.55 21.077-46.72 47.075.831 26 23.095 47.076 49.727 47.076z"/><path fill="#333" d="M33.385 95.431l-.052-.49-8.798-87.816L76.72 6.77l-.384 4.537-1.101-.085.288-3.38-49.768.34L34.39 94.36l33.782-.234 1.743-20.49 1.1.092-1.824 21.456-35.806.248z"/><path fill="#333" d="M38.736 109.515l-2.88-14.64 30.849-.212-2.652 14.675-7.04.049-.096-.418a4.7 4.7 0 0 0-.962-1.95 4.951 4.951 0 0 0-1.757-1.345 6.394 6.394 0 0 0-5.651.036c-.683.321-1.28.79-1.745 1.368a4.689 4.689 0 0 0-.937 1.969l-.096.419-7.032.049zm-1.543-13.582l2.46 12.51h5.237a5.805 5.805 0 0 1 1.172-2.138 6.08 6.08 0 0 1 1.968-1.504 7.54 7.54 0 0 1 6.648-.043 6.05 6.05 0 0 1 1.983 1.475c.547.618.953 1.34 1.194 2.118l5.245-.036 2.268-12.538-28.175.156z"/><path fill="#333" d="M39.724 114.541l-1.197-6.091 6.36-.043a5.805 5.805 0 0 1 1.173-2.138 6.08 6.08 0 0 1 1.967-1.504 7.539 7.539 0 0 1 6.649-.042c.76.353 1.435.855 1.982 1.474.547.618.954 1.34 1.194 2.118l6.368-.043-1.1 6.106-23.396.163zm.14-5.033l.776 3.961 21.57-.149.74-3.968-5.91.035-.096-.419a4.7 4.7 0 0 0-.962-1.95 4.936 4.936 0 0 0-1.757-1.344 6.38 6.38 0 0 0-2.83-.64 6.384 6.384 0 0 0-2.821.675 4.93 4.93 0 0 0-1.745 1.369 4.684 4.684 0 0 0-.937 1.968l-.096.419-5.932.043zM24.774 8.19L21.656.465l57.85-.397-3 7.767-51.732.355zm-1.478-6.674l2.26 5.602 50.234-.34 2.172-5.638-54.666.376zM56.935 29.91l-29.466.222.008 1.065 29.467-.222-.009-1.065zM67.981 70.127l-36.551.227.007 1.065 36.551-.227-.007-1.065zM59.715 66.654l-.067-.639A26.533 26.533 0 0 1 63.665 52.5c2.543-4.092 6.155-7.473 10.477-9.807 4.374-2.28 9.293-3.373 14.036-4.43 1.381-.306 2.755-.611 4.122-.945 4.898-1.207 11.886-3.386 16.001-8.399L110 26.84l-.739 2.549c-2.216 7.753-4.58 15.25-8.783 21.817-4.839 7.547-11.546 12.638-18.89 14.327-3.922.895-7.992.817-11.93.71a61.091 61.091 0 0 0-9.396.305l-.547.107zm47.862-35.37c-4.359 4.067-10.527 5.963-14.996 7.099-1.374.334-2.756.646-4.145.951-4.683 1.044-9.529 2.13-13.77 4.331-4.06 2.195-7.469 5.35-9.903 9.168a25.54 25.54 0 0 0-4.007 12.642 67.28 67.28 0 0 1 8.94-.234c3.87.078 7.867.156 11.649-.71C88.4 62.905 94.87 57.985 99.547 50.68c3.745-5.872 6.006-12.503 8.03-19.397z"/><path fill="#333" d="M57.816 61.429l-.162-.504c-2.401-7.37-3.103-14.484-2.083-21.143 1.167-7.569 4.66-14.384 9.854-19.17 5.651-5.268 13.379-8.05 20.684-7.461l1.87.156-1.655.845c-2.955 1.519-3.694 5.26-3.85 6.808-.117 1.1-.147 2.244-.176 3.351.02 1.76-.143 3.518-.488 5.247-.886 3.806-3.405 7.327-7.92 11.09-1.144.958-2.356 1.888-3.523 2.79a53.163 53.163 0 0 0-6.863 5.935c-3.25 3.55-4.83 7.647-4.343 11.225l.066.44-1.41.39zm26.336-47.327c-6.724.116-13.146 2.705-17.944 7.235-5.016 4.664-8.4 11.267-9.522 18.6a43.57 43.57 0 0 0 1.345 18.375c.44-3.621 2.073-7.012 4.66-9.677a54.56 54.56 0 0 1 6.99-6.07c1.159-.895 2.356-1.818 3.493-2.762 4.33-3.607 6.73-6.944 7.565-10.515.322-1.664.476-3.355.458-5.048 0-1.128.059-2.293.185-3.436.325-2.89 1.418-5.247 3.073-6.71l-.303.008zM63.519 63.68l-.288-1.03c14.527-3.807 27.641-11.48 37.83-22.137l.812.71c-10.33 10.807-23.624 18.59-38.354 22.456z"/><path fill="#333" d="M58.926 50.374l-1.086-.22c2.496-11.04 8.333-21.126 16.776-28.988l.739.767c-8.273 7.717-13.989 17.612-16.43 28.441z"/><path fill="#333" d="M65.508 32.873l.399-8.697 1.108.05-.325 7.071 7.875-2.91.398.993-9.455 3.493zM60.757 42.103l-.562-9.748 1.108-.063.466 8.008 7.49-4.217.562.923-9.064 5.097zM86.227 53.42l3.538-10.905 1.064.32-3.051 9.378 9.633-.837.103 1.058-11.287.986zM85.126 61.72l-13.15-1.143 5.393-12.709 1.027.405-4.831 11.374 11.664 1.015-.103 1.058zM28.676 90.667c-6.563-3.708-12.123-8.851-16.23-15.011-4.107-6.16-6.645-13.165-7.409-20.444-.763-7.28.27-14.63 3.015-21.454s7.126-12.93 12.786-17.823l.739.789c-5.53 4.784-9.807 10.753-12.486 17.423a43.861 43.861 0 0 0-2.935 20.967c.75 7.113 3.234 13.956 7.25 19.975 4.017 6.018 9.453 11.041 15.868 14.662l-.598.916zM72.038 93.938l-.429-.98c7.844-3.19 14.646-8.355 19.692-14.95 5.045-6.595 8.147-14.375 8.978-22.522l1.108.107c-.853 8.336-4.03 16.297-9.195 23.044S80.065 90.667 72.038 93.93v.007zM96.749 33.335c-2.535-5.81-6.31-11.044-11.081-15.364l.739-.781c4.892 4.422 8.767 9.778 11.376 15.726l-1.034.419z"/><path fill="#333" d="M12.18 65.063l-.975-.51a11.405 11.405 0 0 0 1.1-5.256 11.443 11.443 0 0 0-1.433-5.181l-.384-.71.828-.071c1.876-.16 3.689-.734 5.298-1.676a12.064 12.064 0 0 0 3.98-3.756l.975.504a11.393 11.393 0 0 0-1.104 5.26 11.43 11.43 0 0 0 1.436 5.184l.385.71-.828.071c-1.877.159-3.69.732-5.3 1.674a12.042 12.042 0 0 0-3.978 3.757zm0-10.756a12.205 12.205 0 0 1 .975 7.846 13.444 13.444 0 0 1 7.387-3.494 12.287 12.287 0 0 1-.982-7.852 13.388 13.388 0 0 1-7.35 3.5h-.03zM74.75 104.808l-.976-.511a9.54 9.54 0 0 0 .926-4.4 9.57 9.57 0 0 0-1.2-4.34l-.39-.71.827-.07a10.512 10.512 0 0 0 4.448-1.393 10.045 10.045 0 0 0 3.338-3.152l.975.512a9.541 9.541 0 0 0-.925 4.4c.047 1.516.457 3 1.198 4.34l.392.709-.828.071c-1.574.13-3.095.608-4.446 1.396a10.086 10.086 0 0 0-3.34 3.148zm.073-9.06a10.315 10.315 0 0 1 .835 6.327 11.47 11.47 0 0 1 5.976-2.783 10.322 10.322 0 0 1-.835-6.326 11.47 11.47 0 0 1-5.976 2.783zM18.252 46.974a2.477 2.477 0 0 1-1.176-.307 2.358 2.358 0 0 1-.868-.822 2.236 2.236 0 0 1 .544-2.956c.244-.19.526-.331.828-.416a2.417 2.417 0 0 1 1.817.184c.557.292.97.783 1.15 1.368a2.22 2.22 0 0 1-.19 1.75 2.3 2.3 0 0 1-.594.69 2.405 2.405 0 0 1-1.511.509zm0-3.55c-.225.002-.446.06-.64.17-.194.11-.355.267-.465.456a1.19 1.19 0 0 0 .017 1.232c.115.186.28.34.477.444a1.32 1.32 0 0 0 1.282-.023c.193-.112.351-.272.459-.461.16-.288.196-.624.1-.937a1.247 1.247 0 0 0-.617-.732 1.282 1.282 0 0 0-.606-.128l-.007-.02zM12.355 49.962c-.283 0-.562-.065-.812-.191a1.705 1.705 0 0 1-.6-.38c-.17-.165-.3-.364-.383-.583a1.573 1.573 0 0 1 .106-1.344c.116-.204.276-.382.47-.521.193-.14.415-.238.651-.289a1.769 1.769 0 0 1 1.373.277c.197.1.372.237.512.403a1.59 1.59 0 0 1-.25 2.296 1.724 1.724 0 0 1-.587.297 1.82 1.82 0 0 1-.48.035zm0-2.193a.617.617 0 0 0-.461.224.566.566 0 0 0-.108.486.566.566 0 0 0 .188.276.603.603 0 0 0 .653.068.555.555 0 0 0-.272-1.055zM12.815 44.73c-.282 0-.56-.068-.806-.199a1.684 1.684 0 0 1-.51-.406 1.61 1.61 0 0 1-.311-.564 1.572 1.572 0 0 1 .134-1.245c.106-.19.25-.357.423-.492a1.766 1.766 0 0 1 1.576-.291c.322.095.606.28.818.53a1.58 1.58 0 0 1 .175 1.808c-.146.26-.363.477-.627.628a1.76 1.76 0 0 1-.872.231zm0-2.208a.51.51 0 0 0-.17 0 .579.579 0 0 0-.348.27.55.55 0 0 0 .059.63.613.613 0 0 0 .915.006.557.557 0 0 0 .067-.63.58.58 0 0 0-.243-.233.614.614 0 0 0-.28-.043zM76.22 114.499a3.207 3.207 0 0 1-2.133-.822 2.97 2.97 0 0 1-.979-1.997 2.938 2.938 0 0 1 .698-2.103 3.173 3.173 0 0 1 2.002-1.084 3.235 3.235 0 0 1 2.233.517 3.013 3.013 0 0 1 1.27 1.839 2.919 2.919 0 0 1-.374 2.179 3.125 3.125 0 0 1-1.816 1.35 3.226 3.226 0 0 1-.902.121zm0-4.97a2.091 2.091 0 0 0-.584.085c-.521.149-.96.491-1.219.95-.259.459-.317.999-.163 1.5.155.501.51.922.988 1.171s1.04.305 1.56.156c.522-.149.96-.491 1.22-.951a1.91 1.91 0 0 0-.043-1.946 2.013 2.013 0 0 0-.748-.706 2.12 2.12 0 0 0-1.012-.259zM81.301 107.811a1.883 1.883 0 0 1-1.205-.431 1.75 1.75 0 0 1-.616-1.086 1.71 1.71 0 0 1 .274-1.207c.24-.358.605-.621 1.03-.74a1.936 1.936 0 0 1 1.396.142c.43.223.748.601.887 1.05.14.45.09.935-.14 1.349a1.845 1.845 0 0 1-1.626.923zm0-2.47a.653.653 0 0 0-.207 0 .733.733 0 0 0-.435.34.686.686 0 0 0-.058.532.716.716 0 0 0 .346.42.77.77 0 0 0 .561.057.735.735 0 0 0 .436-.341.687.687 0 0 0 .06-.533.72.72 0 0 0-.355-.419.758.758 0 0 0-.34-.056H81.3zM70.853 109.969c-.4 0-.793-.1-1.141-.291a2.272 2.272 0 0 1-.844-.794 2.156 2.156 0 0 1-.047-2.195c.146-.256.343-.482.58-.666a2.394 2.394 0 0 1 2.56-.221c.267.14.503.329.693.556.191.227.334.488.42.769a2.142 2.142 0 0 1-.19 1.692 2.21 2.21 0 0 1-.574.669 2.32 2.32 0 0 1-.8.403 2.276 2.276 0 0 1-.657.078zm0-3.379a1.117 1.117 0 0 0-.34.05 1.187 1.187 0 0 0-.738.553 1.127 1.127 0 0 0 .388 1.507 1.238 1.238 0 0 0 1.127.112c.183-.072.345-.186.472-.332a1.116 1.116 0 0 0 .23-1.067c-.041-.15-.113-.29-.212-.412a1.167 1.167 0 0 0-.365-.298 1.259 1.259 0 0 0-.562-.113zM32.5 34.15l-1.105.084 2.504 30.448 1.105-.084-2.505-30.448z"/></svg>
